X:1
T:Rolling in the Barrel
R:reel
C:traditional Irish
D:An Historic Recording of Irish Music
Z:Paul Stewart Cranford (P.S.C.), <http://www.cranfordpub.com>
N:
H:
L:1/8
Q:333
M:C|
K:Eminor
E2 ~E2 B(E ~E2)|TB2 AF DEFD|E2 ~E2 B(E ~E2)|(3(BcB) Ad BE[1{G}(ED):|[2E2||
||e2 (3(gfe) be (3(gfe)|~d3 f a2 fd|e2 ge be (3(gfe)|dBAc B(E ~E2)|
e2 (3(gfe) be (3(gfe)|~d3 f a2 fd|efge fdeB|(3(dcB) Ac B(E ~E2)|]
